X: 31572
T: Páití O'Leary's
R: jig
M: 6/8
K: Dmajor
d|:B|ABA ADB|AFF F2E|DFA BAB|cEE EDB|
ABA ADB|AFF F2A|def ede|fdc d2:|
|:A|dfe d2B|AFA d2e|fef afd|efe edB|
dfe d2B|AFA d2e|fef afd|efe d2:|

